X:1
T: The Braes of Marr
T: 2nd setting
R:Reel
Q: 232
K:C
M:4/4
L:1/8
|:e|c3e c1/2c1/2c ce|D2AG AD DB|cB cd cd ef|gG GE D2Ce|
c3e c1/2c1/2c ce|D2AG AD DB|cB cd cd ef|gG GE D2CG|
EG GB cA GE|FA GE DD AD|EG GA GA cd|ec fe d2cG|
EG GB cA GE|FA Ec DE FD|EG GA GA cd|eg fe d2c:|
